Numix-GalliumOS/24/devices/audio-headset.svg

<?xml version="1.0" encoding="UTF-8" standalone="no"?>
<svg
   xmlns:dc="http://purl.org/dc/elements/1.1/"
   xmlns:cc="http://creativecommons.org/ns#"
   xmlns:rdf="http://www.w3.org/1999/02/22-rdf-syntax-ns#"
   xmlns:svg="http://www.w3.org/2000/svg"
   xmlns="http://www.w3.org/2000/svg"
   xmlns:sodipodi="http://sodipodi.sourceforge.net/DTD/sodipodi-0.dtd"
   xmlns:inkscape="http://www.inkscape.org/namespaces/inkscape"
   viewBox="0 0 24 24"
   id="svg2"
   version="1.1"
   inkscape:version="0.91 r"
   sodipodi:docname="audio-headset.svg"
   width="24"
   height="24">
  <metadata
     id="metadata12">
    <rdf:RDF>
      <cc:Work
         rdf:about="">
        <dc:format>image/svg+xml</dc:format>
        <dc:type
           rdf:resource="http://purl.org/dc/dcmitype/StillImage" />
        <dc:title />
      </cc:Work>
    </rdf:RDF>
  </metadata>
  <defs
     id="defs10" />
  <sodipodi:namedview
     pagecolor="#ffffff"
     bordercolor="#666666"
     borderopacity="1"
     objecttolerance="10"
     gridtolerance="10"
     guidetolerance="10"
     inkscape:pageopacity="0"
     inkscape:pageshadow="2"
     inkscape:window-width="1920"
     inkscape:window-height="1056"
     id="namedview8"
     showgrid="true"
     inkscape:zoom="15.999999"
     inkscape:cx="6.9955759"
     inkscape:cy="6.1676319"
     inkscape:window-x="0"
     inkscape:window-y="24"
     inkscape:window-maximized="1"
     inkscape:current-layer="svg2">
    <inkscape:grid
       type="xygrid"
       id="grid4140" />
  </sodipodi:namedview>
  <path
     style="fill:#faae40;fill-opacity:1;fill-rule:evenodd;stroke:none;stroke-width:1px;stroke-linecap:butt;stroke-linejoin:miter;stroke-opacity:1"
     d="m 11.876776,3.5043356 c 0,0 -1.590957,0.1173897 -2.6515939,0.5158179 C 8.1645438,4.4185826 7.4809785,4.8819215 6.043269,5.9425598 4.6055586,7.0031981 5.289222,7.207247 5.289222,7.207247 5.6732484,7.251176 6.1712049,7.235084 6.5124768,7.0021622 6.9475179,6.7052432 7.8969369,5.9417408 8.6948625,5.6152541 9.6986703,5.2045274 10.792153,4.934747 11.876776,4.934747 c 1.084623,0 2.178106,0.2697804 3.181913,0.6805071 0.797926,0.3264867 1.747345,1.0899891 2.182386,1.3869081 0.341272,0.2329209 0.839229,0.2490174 1.223255,0.2050848 0,0 0.683663,-0.2040489 -0.754047,-1.2646872 C 16.272574,4.8819215 15.589008,4.4185826 14.52837,4.0201535 13.467733,3.6217253 11.876776,3.5043356 11.876776,3.5043356 Z"
     id="path4210"
     inkscape:connector-curvature="0"
     sodipodi:nodetypes="csscssasscssc" />
  <path
     style="opacity:1;fill:none;fill-opacity:1;fill-rule:nonzero;stroke:#515151;stroke-width:0.81;stroke-linecap:butt;stroke-linejoin:miter;stroke-miterlimit:4;stroke-dasharray:none;stroke-dashoffset:0;stroke-opacity:1"
     id="path4142"
     transform="scale(-1,-1)"
     sodipodi:type="arc"
     sodipodi:cx="-12"
     sodipodi:cy="-11.859119"
     sodipodi:rx="8.3699989"
     sodipodi:ry="8.3699999"
     sodipodi:start="0"
     sodipodi:end="3.1415927"
     sodipodi:open="true"
     d="m -3.6300011,-11.859119 a 8.3699989,8.3699999 0 0 1 -4.1849995,7.2486322 8.3699989,8.3699999 0 0 1 -8.3699994,-2e-7 8.3699989,8.3699999 0 0 1 -4.184999,-7.248633" />
  <path
     style="fill:#faae40;fill-opacity:1;fill-rule:evenodd;stroke:none;stroke-width:1px;stroke-linecap:butt;stroke-linejoin:miter;stroke-opacity:1"
     d="m 3.225,11.85912 0.135,1.62 0.81,0 -0.135,-1.62 z"
     id="path4166"
     inkscape:connector-curvature="0"
     sodipodi:nodetypes="ccccc" />
  <rect
     style="opacity:1;fill:#515151;fill-opacity:1;fill-rule:nonzero;stroke:none;stroke-width:1;stroke-linecap:butt;stroke-linejoin:miter;stroke-miterlimit:4;stroke-dasharray:none;stroke-dashoffset:0;stroke-opacity:1"
     id="rect4157"
     width="3.7799997"
     height="8.6400003"
     x="3.2524512"
     y="12.640449"
     ry="1.08"
     rx="1.08"
     transform="matrix(0.9961947,-0.08715574,0.08715574,0.9961947,0,0)" />
  <path
     sodipodi:nodetypes="ccccccc"
     style="fill:#515151;fill-opacity:1;fill-rule:evenodd;stroke:none;stroke-width:1px;stroke-linecap:butt;stroke-linejoin:miter;stroke-opacity:1"
     d="m 3.36,13.478897 0.6118335,6.993286 0.5379444,-0.04707 -0.04707,-0.537945 0.5379453,-0.04706 -0.5647689,-6.455342 z"
     id="path4155"
     inkscape:connector-curvature="0" />
  <rect
     style="opacity:1;fill:#faae40;fill-opacity:1;fill-rule:nonzero;stroke:none;stroke-width:1;stroke-linecap:butt;stroke-linejoin:miter;stroke-miterlimit:4;stroke-dasharray:none;stroke-dashoffset:0;stroke-opacity:1"
     id="rect4159"
     width="1.08"
     height="8.6400003"
     x="3.2524512"
     y="12.640449"
     transform="matrix(0.9961947,-0.08715574,0.08715574,0.9961947,0,0)" />
  <path
     sodipodi:nodetypes="ccccc"
     inkscape:connector-curvature="0"
     id="path4181"
     d="m 20.775,11.85912 -0.135,1.62 -0.81,0 0.135,-1.62 z"
     style="fill:#faae40;fill-opacity:1;fill-rule:evenodd;stroke:none;stroke-width:1px;stroke-linecap:butt;stroke-linejoin:miter;stroke-opacity:1" />
  <rect
     rx="1.0799545"
     ry="1.0799997"
     y="10.54863"
     x="-20.656225"
     height="8.6399975"
     width="3.7798409"
     id="rect4185"
     style="opacity:1;fill:#515151;fill-opacity:1;fill-rule:nonzero;stroke:none;stroke-width:1;stroke-linecap:butt;stroke-linejoin:miter;stroke-miterlimit:4;stroke-dasharray:none;stroke-dashoffset:0;stroke-opacity:1"
     transform="matrix(-0.99619438,-0.08715941,-0.08715207,0.99619502,0,0)" />
  <path
     inkscape:connector-curvature="0"
     id="path4187"
     d="m 20.639999,13.478897 -0.611806,6.993286 -0.537923,-0.04707 0.04706,-0.537945 -0.537922,-0.04706 0.564745,-6.455342 z"
     style="fill:#515151;fill-opacity:1;fill-rule:evenodd;stroke:none;stroke-width:1px;stroke-linecap:butt;stroke-linejoin:miter;stroke-opacity:1"
     sodipodi:nodetypes="ccccccc" />
  <rect
     y="10.54863"
     x="-20.656225"
     height="8.6399975"
     width="1.0799545"
     id="rect4189"
     style="opacity:1;fill:#faae40;fill-opacity:1;fill-rule:nonzero;stroke:none;stroke-width:1;stroke-linecap:butt;stroke-linejoin:miter;stroke-miterlimit:4;stroke-dasharray:none;stroke-dashoffset:0;stroke-opacity:1"
     transform="matrix(-0.99619438,-0.08715941,-0.08715207,0.99619502,0,0)" />
  <path
     style="color:#000000;font-style:normal;font-variant:normal;font-weight:normal;font-stretch:normal;font-size:medium;line-height:normal;font-family:sans-serif;text-indent:0;text-align:start;text-decoration:none;text-decoration-line:none;text-decoration-style:solid;text-decoration-color:#000000;letter-spacing:normal;word-spacing:normal;text-transform:none;direction:ltr;block-progression:tb;writing-mode:lr-tb;baseline-shift:baseline;text-anchor:start;white-space:normal;clip-rule:nonzero;display:inline;overflow:visible;visibility:visible;opacity:1;isolation:auto;mix-blend-mode:normal;color-interpolation:sRGB;color-interpolation-filters:linearRGB;solid-color:#000000;solid-opacity:1;fill:#515151;fill-opacity:1;fill-rule:nonzero;stroke:none;stroke-width:1.5;stroke-linecap:round;stroke-linejoin:miter;stroke-miterlimit:4;stroke-dasharray:none;stroke-dashoffset:0;stroke-opacity:1;color-rendering:auto;image-rendering:auto;shape-rendering:auto;text-rendering:auto;enable-background:accumulate"
     d="m 12,1.3291193 c -0.228224,-0.00297 -0.413836,0.1831122 -0.410274,0.4113279 0.0035,0.2232603 0.187006,0.4015845 0.410274,0.3986721 5.373005,0 9.72,4.3469829 9.72,9.7200007 0,1.62 -0.242783,4.541334 -0.7425,4.644843 C 20.624983,16.576983 20.1,16.71912 20.1,16.71912 l 0,0.81 c 0,0 1.402321,-0.174482 1.730824,-0.657215 C 22.043071,16.560011 22.531825,15.09912 22.53,11.85912 22.53,6.0483476 17.810762,1.3291193 12,1.3291193 Z"
     id="path4142-2"
     inkscape:connector-curvature="0"
     sodipodi:nodetypes="ccccsccscc" />
  <rect
     style="opacity:1;fill:#515151;fill-opacity:1;fill-rule:nonzero;stroke:none;stroke-width:1.5;stroke-linecap:round;stroke-linejoin:miter;stroke-miterlimit:4;stroke-dasharray:none;stroke-dashoffset:0;stroke-opacity:1"
     id="rect4245"
     width="1.62"
     height="1.1127565"
     x="12"
     y="1.566363"
     rx="0.37799999" />
</svg>

<svg xmlns="http://www.w3.org/2000/svg" viewBox="0 0 24 24">
 <path d="m 11.877 3.504 c 0 0 -1.591 0.117 -2.652 0.516 c -1.061 0.398 -1.744 0.862 -3.182 1.922 -1.438 1.061 -0.754 1.265 -0.754 1.265 0.384 0.044 0.882 0.028 1.223 -0.205 0.435 -0.297 1.384 -1.06 2.182 -1.387 1 -0.411 2.097 -0.681 3.182 -0.681 c 1.085 0 2.178 0.27 3.182 0.681 0.798 0.326 1.747 1.09 2.182 1.387 0.341 0.233 0.839 0.249 1.223 0.205 0 0 0.684 -0.204 -0.754 -1.265 c -1.438 -1.061 -2.121 -1.524 -3.182 -1.922 -1.061 -0.398 -2.652 -0.516 -2.652 -0.516" style="fill:#faae40;fill-opacity:1;stroke:none;fill-rule:evenodd"/>
 <path transform="scale(-1,-1)" d="m -3.63 -11.859 a 8.37 8.37 0 0 1 -4.185 7.249 8.37 8.37 0 0 1 -8.37 0 8.37 8.37 0 0 1 -4.185 -7.249" style="stroke-dasharray:none;stroke-opacity:1;fill:none;opacity:1;stroke-miterlimit:4;fill-opacity:1;stroke:#515151;fill-rule:nonzero;stroke-linecap:butt;stroke-linejoin:miter;stroke-width:0.81;stroke-dashoffset:0"/>
 <path d="m 3.225 11.859 0.135 1.62 0.81 0 -0.135 -1.62 z" style="fill:#faae40;fill-opacity:1;stroke:none;fill-rule:evenodd"/>
 <rect width="3.78" height="8.64" x="3.252" y="12.64" rx="1.08" transform="matrix(0.9961947,-0.08715574,0.08715574,0.9961947,0,0)" style="fill:#515151;opacity:1;fill-opacity:1;stroke:none;fill-rule:nonzero"/>
 <path d="m 3.36 13.479 0.612 6.993 0.538 -0.047 -0.047 -0.538 0.538 -0.047 -0.565 -6.455 z" style="fill:#515151;fill-opacity:1;stroke:none;fill-rule:evenodd"/>
 <rect width="1.08" height="8.64" x="3.252" y="12.64" transform="matrix(0.9961947,-0.08715574,0.08715574,0.9961947,0,0)" style="fill:#faae40;opacity:1;fill-opacity:1;stroke:none;fill-rule:nonzero"/>
 <path d="m 20.775 11.859 -0.135 1.62 -0.81 0 0.135 -1.62 z" style="fill:#faae40;fill-opacity:1;stroke:none;fill-rule:evenodd"/>
 <rect rx="1.08" y="10.549" x="-20.656" height="8.64" width="3.78" transform="matrix(-0.99619438,-0.08715941,-0.08715207,0.99619502,0,0)" style="fill:#515151;opacity:1;fill-opacity:1;stroke:none;fill-rule:nonzero"/>
 <path d="m 20.64 13.479 -0.612 6.993 -0.538 -0.047 0.047 -0.538 -0.538 -0.047 0.565 -6.455 z" style="fill:#515151;fill-opacity:1;stroke:none;fill-rule:evenodd"/>
 <rect y="10.549" x="-20.656" height="8.64" width="1.08" transform="matrix(-0.99619438,-0.08715941,-0.08715207,0.99619502,0,0)" style="fill:#faae40;opacity:1;fill-opacity:1;stroke:none;fill-rule:nonzero"/>
 <path d="m 12 1.329 c -0.228 -0.003 -0.414 0.183 -0.41 0.411 0.004 0.223 0.187 0.402 0.41 0.399 5.373 0 9.72 4.347 9.72 9.72 0 1.62 -0.243 4.541 -0.742 4.645 c -0.353 0.073 -0.877 0.215 -0.877 0.215 l 0 0.81 c 0 0 1.402 -0.174 1.731 -0.657 c 0.212 -0.312 0.701 -1.773 0.699 -5.01 0 -5.811 -4.719 -10.53 -10.53 -10.53" mix-blend-mode="normal" isolation="auto" white-space="normal" solid-opacity="1" solid-color="#000000" style="visibility:visible;shape-rendering:auto;color-interpolation-filters:linearRGB;fill:#515151;opacity:1;image-rendering:auto;fill-opacity:1;stroke:none;display:inline;color:#000;fill-rule:nonzero;color-rendering:auto;color-interpolation:sRGB"/>
 <rect width="1.62" height="1.113" x="12" y="1.566" rx="0.378" style="fill:#515151;opacity:1;fill-opacity:1;stroke:none;fill-rule:nonzero"/>
</svg>
